!!!!SEGMENT: pl-wumfc--n42994_grossmann-ludwik--dudziarz.krn
!!!cenid: 18xx:4168
!!!COM: Grossmann, Ludwik
!!!COM-rismID: pe30020193
!!!CDT:
!!!CNT:
!!!OTL: Dudziarz
!!!PDT:
!!!AGN:
!!!YEC: Copyright 2022 Narodowy Instytut Fryderyka Chopina (https://polishscores.org)
!!!YEM: License CC-BY-4.0 (https://creativecommons.org/licenses/by/4.0)
!!!SMS-siglum: PL-Wumfc
!!!SMS-shelfmark: N42994
!!!SMS-shelfwork: W
!!!SMS-variant:
!!!SMS-altvar:
!!!NIFC-rismSourceID: 1001166948
!!!NIFC-rismChildID: 1001166948
!!!NIFC-islandoraID: pl-wumfc:5810
!!!URL-pdf-islandora: https://repozytorium.nifc.pl/islandora/object/pl-wumfc%3A5810/datastream/PDF/view
!!!URL-scan: https://polish.musicsources.pl/pl/lokalizacje/galeria/druki-muzyczne/12432/1 @EN{Scan on Polish Music Sources Website} @PL{Skany w portalu Dziedzictwo Muzyki Polskiej w otwartym dostępie}
!!!IIIF:
!!!ONB-nifc:
!!!AIN: 1 forte
!!!key:
**kern	**kern	**dynam
*part1	*part1	*
*staff2	*staff1	*
*Iforte	*Iforte	*
*I"Fortepian.	*I"Fortepian.	*
*>[A,B,A,C,C,A]	*>[A,B,A,C,C,A]	*
*>A	*>A	*
*clefF4	*clefG2	*
*k[f#c#]	*k[f#c#]	*
*D:	*D:	*
*M3/8	*M3/8	*
=1	=1	=1
!!LO:TX:t=[segno]
8D\L	16.ff#LL 16.dd\	f
.	32ggJJk 32ee\	.
8d 8A 8F#\	8aaL 8ff#\	.
.	(8qbb/	.
8dJ 8A 8F#\	16aaL 16ff#\)	.
.	16gg#XJJ 16ee#X\	.
=2	=2	=2
8D\L	16.aaLL 16.ff#\	.
.	32bbJJk 32ff#\	.
8d 8A 8F#\	8ccc#L 8ff#\	.
8dJ 8A 8F#\	8dddJ 8ff#\	.
=3	=3	=3
*^	*	*
4.F#/	8F#\L	16.dd\LL	.
.	.	32ff#\JJk	.
.	8d 8A\	16bb\LL	.
.	.	16aa\	.
.	8dJ 8A\	16ff#\	.
.	.	16dd\JJ	.
=4	=4	=4	=4
4.G/	8G\L	16cc# 16g/	.
.	.	16r	.
.	8e 8B\	4b 4g^>/	.
.	8eJ 8B\	.	.
*v	*v	*	*
=5	=5	=5
8AA\L	8a\L	mf
8c# 8A 8G\	8cc#\J	.
.	(8qdd/	.
8c#J 8A 8G\	16cc#\LL)	.
.	16b\JJ	.
!!LO:LB:g=original
=6	=6	=6
8AA\L	16.cc#LL 16.a\	.
.	32ddJJk 32b\	.
8c# 8A 8G\	8eeL 8cc#\	.
8c#J 8A 8G\	8aaJ 8cc#\	.
=7	=7	=7
.	(8qaa/	.
16A 16AA\	16eee 16ccc# 16gg\)	.
16r	16r	.
16E\LL	16e/LL	.
16F#\	16f#/	.
16G\	16g/	.
16A\JJ	16a/JJ	.
=8	=8	=8
8D\L	16.b/LL	.
.	32a/JJk	.
8A 8F#\	8f#/L	.
8AJ 8F#\	8d/J	.
=9	=9	=9
!	!LO:TUP:a	!
8D\L	24a\LL	f
.	24dd\	.
.	24ff#\JJ	.
8d 8A 8F#\	8aaL 8ff#\	.
.	(8qbb/	.
8dJ 8A 8F#\	16aaL 16ff#\)	.
.	16gg#XJJ 16ee#X\	.
=10	=10	=10
8D\L	16.aaLL 16.ff#\	.
.	32bbJJk 32ff#\	.
8d 8A 8F#\	8ccc#L 8ff#\	.
8dJ 8A 8F#\	8dddJ 8ff#\	.
=11	=11	=11
*^	*	*
4.F#/	8F#\L	16.dd\LL	.
.	.	32ff#\JJk	.
.	8d 8A\	16bb\LL	.
.	.	16aa\	.
.	8dJ 8A\	16ff#\	.
.	.	16dd\JJ	.
!!LO:LB:g=original
=12	=12	=12	=12
4.G/	8G\L	16cc# 16g/	.
.	.	16r	.
.	8e 8B\	4b 4g^>/	.
.	8eJ 8B\	.	.
*v	*v	*	*
=13	=13	=13
8EL 8EE^/	8eeL 8b 8g^\	.
8G 8GG^/	8ee 8b 8g^\	.
8C#J 8CC#^/	8ggJ 8b 8g^\	.
=14	=14	=14
8A 8F# 8D 8AA\	16.ff#LL 16.dd 16.a\	.
.	32aa\JJk	.
4G#X 4E 4D 4GG#X^>/	8ddd\L	.
.	16ccc#\L	.
.	16bb\JJ	.
=15	=15	=15
8A 8F# 8D 8AA\	16.aa\LL	.
.	32ccc#\JJk	.
4G 4E 4C# 4AA^\	8eee\L	.
.	16ccc#\L	.
.	16aa\JJ	.
=16	=16	=16
8F#L 8D/	8ddd\L	.
8DJ 8DD/	8dddJ 8ff# 8dd\	.
!	!LO:TX:i:b:t=Fine.	!
8r	8r	.
=17||	=17||;	=17||
*>B	*>B	*
*k[f#c#g#]	*k[f#c#g#]	*
8AA\L	8a\L	mf
8c# 8A 8E\	(8cc#\	.
8dJ 8A 8F#\	8ff#\J)	.
=18	=18	=18
8AA\L	16.ee\LLk	.
.	32cc#\JJJ	.
8c# 8A 8E\	8a\L	.
.	(>8qa/	.
8B#XJ 8A 8F# 8D#X\	8aa\J)	.
!!LO:LB:g=original
=19	=19	=19
8AA\L	8ee\L	.
8c# 8A 8E\	(8aa\	.
8dJ 8A 8F#\	8ddd\J)	.
=20	=20	=20
8AA\L	16.ccc#\LLk	.
.	32aa\JJJ	.
8c# 8A 8E\	8ee\L	.
8c#J 8A 8E\	8ee\J	.
=21	=21	=21
8BB\L	16eeLL 16dd 16g#\	.
.	16ee 16dd 16g#\	.
8d 8G# 8E\	16ee 16dd 16g#\	.
.	16ee#XJ 16dd 16g#\	.
8dJ 8G# 8E\	8ff#^>J 8dd 8g#\	.
=22	=22	=22
8EE\L	16.ff#LLk 16.dd 16.g#\	.
.	32eeJJJ 32dd 32g#\	.
8d 8G# 8E\	8eeL 8dd 8g#\	.
8dJ 8G# 8E\	8eeJ 8dd 8g#\	.
=23	=23	=23
8AA\L	16eeLL 16cc# 16a\	.
.	16ee 16cc# 16a\	.
8c# 8A 8E\	16ee 16cc# 16a\	.
.	16ee#XJ 16cc# 16a\	.
8c#J 8A 8E\	8ff#J 8cc# 8a\	.
=24	=24	=24
8EE\L	16.ff#LL 16.cc# 16.a\	.
.	32eeJK 32cc# 32a\	.
8c# 8A 8E\	8ee 8cc# 8a\	.
8c#J 8A 8E\	8eeJ 8cc# 8a\	.
=25	=25	=25
8AA\L	8a\L	.
8c# 8A 8E\	(8cc#\	.
8dJ 8A 8F#\	8ff#\J)	.
!!LO:LB:g=original
=26	=26	=26
8AA\L	16.ee\LL	.
.	32cc#\JJk	.
8c# 8A 8E\	8a\L	.
.	(>8qa/	.
8B#XJ 8A 8F# 8D#X\	8aa\J)	.
=27	=27	=27
8AA\L	8ee\L	.
8c# 8A 8E\	(8aa\	.
8dJ 8A 8F#\	8ddd\J)	.
=28	=28	=28
8AA\L	16.ccc#\LL	.
.	32aa\JJk	.
8c# 8A 8E\	8ee\L	.
8c#J 8A 8E\	8ee\J	.
=29	=29	=29
*^	*	*
!	!	!LO:TUP:a:problem:klamra łukowa	!
4.D/	8D\L	24bb\LL	.
.	.	24aa#X\	.
.	.	24bb\JJ	.
.	8B 8F#\	16ff#\LL	.
.	.	16ddd\	.
.	8BJ 8F#\	16ccc#\	.
.	.	16bb\JJ	.
=30	=30	=30	=30
4.E/	8E\L	16.aa\LL	.
.	.	32ccc#\JJk	.
.	8c# 8A\	8eee\L	.
.	8c#J 8A\	8eee\J	.
=31	=31	=31	=31
4.E/	8E\L	16.fff#LL 16.ff#\	.
.	.	32eeeJJk 32ee\	.
.	8d 8G#\	8dddL 8dd\	.
.	8dJ 8B\	8gg#J 8ee 8dd\	.
*v	*v	*	*
=32	=32	=32
!LO:TX:iB:b:t=D.S. al Fine.	!	!
8c#L 8A\	8aaL 8ee 8cc#\	.
16A\L	8aaJ 8ee 8cc#\	.
16Gn\	.	.
16F#\	8r	.
16E\JJ	.	.
!!LO:TX:t=P:problem:oznaczenie zmiany tonacji przy powrocie do segno
!!LO:PB:g=original
=33!|:	=33!|:	=33!|:
*>C	*>C	*
*k[f#]	*k[f#]	*
!!LO:TX:B:a:t=Trio.
8GL 8D 8GG/	16dLL 16B/	f
.	16d 16B/	.
8G 8D 8GG/	16d 16B/	.
.	16dJ 16B/	.
8GJ 8D 8GG^>/	8bJ 8B^>/	.
=34	=34	=34
8cL 8F# 8D\	16aLL 16d/	.
.	16b 16d/	.
8c 8F# 8D\	16cc 16d/	.
.	16bJ 16d/	.
8cJ 8F# 8D^\	8aJ 8d^>/	.
=35	=35	=35
8GL 8GG/	16dLL 16B/	.
.	16d 16B/	.
8G 8GG/	16d 16B/	.
.	16dJ 16B/	.
8GJ 8GG/	8bJ 8B^>/	.
=36	=36	=36
8cL 8F# 8D\	16aLL 16d/	.
.	16cc 16d/	.
8c 8F# 8D\	16b 16d/	.
.	16aJ 16d/	.
8BJ 8G\	8gJ 8d^>/	.
!!LO:LB:g=original
=37||	=37||	=37||
!	!LO:TX:a:t=Tromba i Puzon Solo.	!
8GG\L	16.dd\LL	mf
.	32b\JJk	.
8B 8G 8D\	8g/L	.
8cJ 8F# 8D\	8a/J	.
=38	=38	=38
8GG\L	8b\	.
8B 8G 8D\	4dd^\	.
8BJ 8G 8D\	.	.
=39	=39	=39
8GG\L	16.b\LL	.
.	32dd\JJk	.
8B 8G 8D\	8dd\L	.
8BB\J	8dd\J	.
=40	=40	=40
8AA\L	8cc#\	.
8c#X 8A 8G 8E\	4a^>/	.
8c#J 8A 8G 8E\	.	.
=41	=41	=41
*^	*	*
4.D/	8D\L	16.ccn\LL	p
.	.	32a\JJk	.
.	8cn 8A\	8g/L	.
.	8cJ 8A\	8f#/J	.
*v	*v	*	*
=42	=42	=42
8GG\L	16.e/LL	.
.	32d/JJk	.
8B 8G 8D\	8g/L	.
8BJ 8G 8D\	8b/J	.
!!LO:LB:g=original
=43	=43	=43
8AA\L	16.a/LL	.
.	32b/JJk	.
8c#X 8A 8G\	8cc#X\L	.
8c#J 8A 8G\	8ee\J	.
=44	=44	=44
8d 8A 8F# 8D\	(8dd\L	.
!	!LO:TUP:a:problem:grupa podzielona na dwie triole	!
4cn 4A 4F# 4D^\	24ee\L	.
.	24ff#\	<
.	24gg\J	.
.	24aa\L	.
.	24bb\	[
.	24ccc\JJ)	.
=45	=45	=45
8GG\L	16.ddd\LL	f
.	32bb\JJk	.
8B 8G 8D\	8gg\L	.
8cJ 8F# 8D\	8aa\J	.
=46	=46	=46
8GG\L	8bb\	.
8B 8G 8D\	4ddd^\	.
8BJ 8G 8D\	.	.
=47	=47	=47
8GG\L	16.bb\LL	.
.	32ddd\JJk	.
8B 8G 8D\	8ddd\L	.
8BB\J	8ddd\J	.
=48	=48	=48
8AA\L	8ccc#X\	.
8c#X 8A 8G\	4aa^\	.
8c#J 8A 8G\	.	.
!!LO:LB:g=original
=49	=49	=49
8D\L	16.cccn\LL	.
.	32aa\JJk	.
8cn 8A\	8gg\L	.
8cJ 8A\	8ff#\J	.
=50	=50	=50
8GG/	16.ee\LL	.
.	32dd\JJk	.
8BL 8G 8D\	8gg\L	.
8BJ 8G 8D\	8bb\J	.
=51	=51	=51
8AA\L	16.aa\LL	.
.	32bb\JJk	.
8c#X 8A 8G\	8ccc#X\L	.
8c#J 8A 8G\	8eee\J	.
=52	=52	=52
8dL 8A 8F# 8D\	8ddd\L	.
(8qc#X/	(8qccc#X/	.
8d\)	8ddd\)	.
(8qc#/	(8qccc#/	.
8d\J)	8ddd\J)	.
=53	=53	=53
8GG\L	8.ddd\L	.
8B 8G 8D\	.	.
.	16bb\L	.
8BJ 8G 8D\	16ddd\	.
.	16bb\JJ	.
=54	=54	=54
8D\L	16.ddd\LL	.
.	32eee\JJk	.
8c 8A 8F#\	8ccc\L	.
8cJ 8A 8F#\	16ccc\L	.
.	16aa\JJ	.
!!LO:LB:g=original
=55	=55	=55
8D\L	8.ccc\L	.
8c 8A 8F#\	.	.
.	16aa\L	.
8cJ 8A 8F#\	16ccc\	.
.	16aa\JJ	.
=56	=56	=56
8GG\L	16.ccc\LL	.
.	32ddd\JJk	.
8B 8G 8D\	8bb\L	.
8BJ 8G 8D\	16bb\L	.
.	16gg\JJ	.
=57	=57	=57
8C\L	16.ff#\LL	.
.	32aa\JJk	.
.	(8qaa/	.
8c 8G 8E\	8gg^>\L)	.
8cJ 8G 8E\	16ee\L	.
.	16cc\JJ	.
=58	=58	=58
8GG\L	16.b\LL	.
.	32dd\JJk	.
8B 8G 8D\	8gg\L	.
8BJ 8G 8D\	16bb\L	.
.	16ddd\JJ	.
=59	=59	=59
8D\L	16.eee\LL	.
.	32ccc\JJk	.
8c 8A 8F#\	8aa\L	.
8cJ 8A 8F#\	16ff#\L	.
.	16dd\JJ	.
=60	=60	=60
8BL 8G\	8gg\L	.
8GJ 8GG\	8ggJ 8dd 8b 8g\	.
!LO:TX:iB:b:t=D.C. al [fermata]	!	!
8r	8r	.
!!LO:TX:t=P:problem:oznaczenie zmiany tonacji przy powrocie do początku
=61:|!	=61:|!	=61:|!
*-	*-	*-
!!!system-decoration: {(p1)}
!!!RDF**kern: > = above
!!!RDF**kern: < = below
!!!ENC: Andrzej Gręziak
!!!END: 2022-09-08
!!!ENC: Kamil Watkowski
!!!END: 2022-09-22
